packages/webapp/public/images/template-logos/facebook.svg

<svg width="62" height="62" viewBox="0 0 62 62" fill="none" xmlns="http://www.w3.org/2000/svg">
<g clip-path="url(#clip0_496_1021)">
<path d="M49.8854 52.2262C51.1872 52.2262 52.2254 51.1715 52.2254 49.8861V12.0989C52.2254 10.797 51.1708 9.75879 49.8854 9.75879H12.0981C10.8127 9.75879 9.75803 10.8135 9.75803 12.0989V49.8861C9.75803 51.188 10.8127 52.2262 12.0981 52.2262H49.8854Z" fill="#157DC3"/>
<path d="M39.0584 52.2259V35.7794H44.579L45.4029 29.3689H39.0584V25.2821C39.0584 23.4199 39.5692 22.1674 42.2389 22.1674H45.6337V16.4161C45.0404 16.3337 43.0299 16.1689 40.6898 16.1689C35.7955 16.1689 32.4501 19.1517 32.4501 24.6394V29.3689H26.9131V35.7794H32.4501V52.2259H39.0584Z" fill="white"/>
</g>
<defs>
<clipPath id="clip0_496_1021">
<rect width="44" height="43.9835" fill="white" transform="translate(9 9)"/>
</clipPath>
</defs>
</svg>

<svg xmlns="http://www.w3.org/2000/svg" width="62" height="62" fill="none"><g clip-path="url(#A)"><path d="M49.885 52.226a2.34 2.34 0 0 0 2.34-2.34V12.099a2.34 2.34 0 0 0-2.34-2.34H12.098a2.35 2.35 0 0 0-2.34 2.34v37.787a2.34 2.34 0 0 0 2.34 2.34h37.787z" fill="#157dc3"/><path d="M39.058 52.226V35.779h5.521l.824-6.411h-6.345v-4.087c0-1.862.511-3.115 3.181-3.115h3.395v-5.751c-.593-.082-2.604-.247-4.944-.247-4.894 0-8.24 2.983-8.24 8.47v4.73h-5.537v6.411h5.537v16.447h6.608z" fill="#fff"/></g><defs><clipPath id="A"><path fill="#fff" transform="translate(9 9)" d="M0 0h44v43.984H0z"/></clipPath></defs></svg>
